X: 1
T: She Moved Through The Fair
R: waltz
M: 3/4
L: 1/8
K: Dmix
|(3DEF|G4 FG|A2 A4-|A4 GE|C2 D2 D2-|{EDC}D6-|D2 z2 AB|
c2 d3 A|B A3 F2|G4 {AG} F>G| A6-|A2 z2 AB|
c2 d3A|BA3 F2|G4 FG| A6-|A2 z2 (3DEF|
G6-|G4 FG|A6-|A2 z2 GE|C2 D2 {EDC}D2-|D6-| D4|


Tune 4735	Setting 17234

